packages/icons/svg/Outline/radio-button-on.svg

<svg fill="none" height="24" viewBox="0 0 24 24" width="24" xmlns="http://www.w3.org/2000/svg"><path clip-rule="evenodd" d="m12 14.9999c-1.654 0-3.00002-1.346-3.00002-3s1.34602-2.99997 3.00002-2.99997 3 1.34597 3 2.99997-1.346 3-3 3zm0-7.99984c-2.75698 0-4.99998 2.243-4.99998 5.00004 0 2.757 2.243 5 4.99998 5 2.757 0 5-2.243 5-5 0-2.75704-2.243-5.00004-5-5.00004zm0 13.00004c-4.41098 0-7.99998-3.589-7.99998-8 0-4.41104 3.589-8.00003 7.99998-8.00003 4.411 0 8 3.58899 8 8.00003 0 4.411-3.589 8-8 8zm0-18.0001c-5.514 0-10 4.486-10 10s4.486 10 10 10 10-4.486 10-10-4.486-10-10-10z" fill="#6b7280" fill-rule="evenodd"/></svg>

<svg width="24" height="24" viewBox="0 0 24 24" fill="none" xmlns="http://www.w3.org/2000/svg">
<g id="Icon/Outline/radio-button-on">
<path id="Mask" fill-rule="evenodd" clip-rule="evenodd" d="M12 15C10.346 15 9 13.654 9 12C9 10.346 10.346 9 12 9C13.654 9 15 10.346 15 12C15 13.654 13.654 15 12 15ZM12 7C9.243 7 7 9.243 7 12C7 14.757 9.243 17 12 17C14.757 17 17 14.757 17 12C17 9.243 14.757 7 12 7ZM12 20C7.589 20 4 16.411 4 12C4 7.589 7.589 4 12 4C16.411 4 20 7.589 20 12C20 16.411 16.411 20 12 20ZM12 2C6.486 2 2 6.486 2 12C2 17.514 6.486 22 12 22C17.514 22 22 17.514 22 12C22 6.486 17.514 2 12 2Z" fill="#000000"/>
</g>
</svg>
